X: 20402
Q: "Moderato"
M: C
L: 1/8
K: G
(G>A) |\
(GA)(Bc) d3d | (ef)(ge) d2zd |\
g3f e3d | (cB)(AG) F2zA |
d2d2 (Be)(fg) | d2(T^c2 {Bc}d2)zd |\
g3g (gf2)f | (fe)(e2 {e}d2)zd |\
dB2 (ec) A2d | (BG2) ^c2 d4 |\
"_Adagio ad lib:"A>G TA2 G4 |
"A Tempo."(Ae)(dc) (cB)(dB) | (Ae)(dc) (cB)(dB) |\
(cB)(AB) (cB)(de) | (ed)(ef) Hg4 |\


